svg/ticket.svg

<svg xmlns="http://www.w3.org/2000/svg" viewBox="0 0 24 24"><path d="M15.58 16.8 12 14.5l-3.58 2.3 1.08-4.12L6.21 10l4.25-.26L12 5.8l1.54 3.94 4.25.26-3.29 2.68M20 12a2 2 0 0 1 2-2V6a2 2 0 0 0-2-2H4a2 2 0 0 0-2 2v4a2 2 0 0 1 2 2 2 2 0 0 1-2 2v4a2 2 0 0 0 2 2h16a2 2 0 0 0 2-2v-4a2 2 0 0 1-2-2"/></svg>

<?xml version="1.0" encoding="UTF-8"?><!DOCTYPE svg PUBLIC "-//W3C//DTD SVG 1.1//EN" "http://www.w3.org/Graphics/SVG/1.1/DTD/svg11.dtd"><svg xmlns="http://www.w3.org/2000/svg" xmlns:xlink="http://www.w3.org/1999/xlink" version="1.1" id="mdi-ticket" width="24" height="24" viewBox="0 0 24 24"><path d="M15.58,16.8L12,14.5L8.42,16.8L9.5,12.68L6.21,10L10.46,9.74L12,5.8L13.54,9.74L17.79,10L14.5,12.68M20,12C20,10.89 20.9,10 22,10V6C22,4.89 21.1,4 20,4H4A2,2 0 0,0 2,6V10C3.11,10 4,10.9 4,12A2,2 0 0,1 2,14V18A2,2 0 0,0 4,20H20A2,2 0 0,0 22,18V14A2,2 0 0,1 20,12Z" /></svg>
